;FLAVOR:Marlin
;TIME:9419
;Filament used: 1.96471m
;Layer height: 0.1
;MINX:26.678
;MINY:7.678
;MINZ:0.3
;MAXX:73.322
;MAXY:92.322
;MAXZ:32
;Generated with Cura_SteamEngine 5.0.0
M104 S200
M105
M109 S200
M82 ;absolute extrusion mode
G28 ;Home
G1 Z15.0 F6000 ;Move the platform down 15mm
;Prime the extruder
G92 E0
G1 F200 E3
G92 E0
G92 E0
G92 E0
G1 F1500 E-6.5
;LAYER_COUNT:318
;LAYER:0
M107
G0 F3600 X27.405 Y12.621 Z0.3
G0 X26.678 Y16.001
;TYPE:SKIRT
G1 F1500 E0
G1 F1800 X26.718 Y15.212 E0.01486
G1 X26.837 Y14.432 E0.0297
G1 X27.034 Y13.672 E0.04447
G1 X27.405 Y12.621 E0.06544
G1 X27.752 Y11.912 E0.08028
G1 X28.169 Y11.241 E0.09515
G1 X28.652 Y10.616 E0.11
G1 X29.375 Y9.877 E0.12945
G1 X30.151 Y9.237 E0.14837
G1 X30.812 Y8.806 E0.16322
G1 X31.514 Y8.444 E0.17807
G1 X32.249 Y8.154 E0.19294
G1 X32.804 Y7.99 E0.20382
G1 X33.844 Y7.765 E0.22384
G1 X35.002 Y7.679 E0.24568
G1 X64.998 Y7.678 E0.80992
G1 X65.786 Y7.718 E0.82476
G1 X66.567 Y7.837 E0.83962
G1 X67.055 Y7.954 E0.84906
G1 X68.083 Y8.277 E0.86933
G1 X68.805 Y8.598 E0.8842
G1 X69.49 Y8.99 E0.89904
G1 X70.132 Y9.45 E0.9139
G1 X70.646 Y9.897 E0.92671
G1 X71.349 Y10.619 E0.94567
G1 X71.833 Y11.243 E0.96052
G1 X72.251 Y11.913 E0.97538
G1 X72.599 Y12.622 E0.99023
G1 X72.906 Y13.467 E1.00714
G1 X73.182 Y14.528 E1.02777
G1 X73.292 Y15.31 E1.04262
G1 X73.322 Y15.998 E1.05558
G1 X73.319 Y84.033 E2.33535
G1 X73.279 Y84.822 E2.35021
G1 X73.159 Y85.603 E2.36508
G1 X72.969 Y86.345 E2.37948
G1 X72.625 Y87.318 E2.3989
G1 X72.279 Y88.028 E2.41375
G1 X71.864 Y88.7 E2.42861
G1 X71.382 Y89.326 E2.44347
G1 X71.041 Y89.701 E2.45301
G1 X70.291 Y90.416 E2.4725
G1 X69.661 Y90.892 E2.48735
G1 X68.986 Y91.303 E2.50222
G1 X68.274 Y91.643 E2.51706
G1 X67.722 Y91.848 E2.52813
G1 X66.731 Y92.134 E2.54754
G1 X65.952 Y92.265 E2.5624
G1 X65.046 Y92.318 E2.57947
G1 X35.003 Y92.322 E3.14459
G1 X34.214 Y92.282 E3.15945
G1 X33.155 Y92.1 E3.17967
G1 X32.16 Y91.817 E3.19912
G1 X31.43 Y91.516 E3.21398
G1 X30.734 Y91.143 E3.22883
G1 X30.08 Y90.701 E3.24368
G1 X29.677 Y90.377 E3.25341
G1 X28.92 Y89.673 E3.27285
G1 X28.406 Y89.073 E3.28771
G1 X27.955 Y88.424 E3.30258
G1 X27.572 Y87.734 E3.31742
G1 X27.285 Y87.081 E3.33084
G1 X27.019 Y86.337 E3.3457
G1 X26.829 Y85.571 E3.36055
G1 X26.707 Y84.664 E3.37777
G1 X26.679 Y84.001 E3.39025
G1 X26.678 Y16.001 E4.66937
G0 F3600 X27.078 Y16.001
G1 F1800 X27.118 Y15.233 E4.68383
G1 X27.237 Y14.473 E4.6983
G1 X27.416 Y13.791 E4.71156
G1 X27.78 Y12.76 E4.73213
G1 X28.121 Y12.071 E4.74659
G1 X28.532 Y11.42 E4.76107
G1 X29.008 Y10.816 E4.77554
G1 X29.642 Y10.175 E4.7925
G1 X30.402 Y9.549 E4.81102
G1 X31.048 Y9.132 E4.82548
G1 X31.734 Y8.783 E4.83996
G1 X32.452 Y8.508 E4.85442
G1 X33.169 Y8.31 E4.86842
G1 X33.923 Y8.158 E4.88289
G1 X35.002 Y8.079 E4.90324
G1 X64.998 Y8.078 E5.46748
G1 X65.766 Y8.118 E5.48194
G1 X66.526 Y8.237 E5.49641
G1 X67.227 Y8.416 E5.51002
G1 X67.958 Y8.657 E5.5245
G1 X68.659 Y8.973 E5.53897
G1 X69.324 Y9.359 E5.55343
G1 X69.945 Y9.813 E5.5679
G1 X70.371 Y10.187 E5.57856
G1 X71.058 Y10.895 E5.59712
G1 X71.527 Y11.505 E5.61159
G1 X71.93 Y12.16 E5.62606
G1 X72.263 Y12.854 E5.64054
G1 X72.523 Y13.582 E5.65508
G1 X72.793 Y14.623 E5.67531
G1 X72.897 Y15.386 E5.6898
G1 X72.922 Y15.998 E5.70132
G1 X72.919 Y84.033 E6.98109
G1 X72.879 Y84.801 E6.99556
G1 X72.759 Y85.561 E7.01003
G1 X72.586 Y86.226 E7.02296
G1 X72.249 Y87.18 E7.04199
G1 X71.909 Y87.87 E7.05646
G1 X71.5 Y88.522 E7.07094
G1 X71.026 Y89.127 E7.08539
G1 X70.582 Y89.599 E7.09758
G1 X70.018 Y90.122 E7.11205
G1 X69.403 Y90.584 E7.12652
G1 X68.743 Y90.979 E7.14099
G1 X68.046 Y91.304 E7.15546
G1 X67.367 Y91.544 E7.169
G1 X66.625 Y91.747 E7.18347
G1 X65.866 Y91.872 E7.19794
G1 X65.046 Y91.918 E7.21339
G1 X35.003 Y91.922 E7.77852
G1 X34.235 Y91.882 E7.79298
G1 X33.25 Y91.712 E7.81179
G1 X32.275 Y91.433 E7.83086
G1 X31.565 Y91.137 E7.84533
G1 X30.89 Y90.769 E7.85979
G1 X30.256 Y90.333 E7.87427
G1 X29.752 Y89.914 E7.8866
G1 X29.196 Y89.383 E7.90106
G1 X28.698 Y88.797 E7.91552
G1 X28.263 Y88.162 E7.93
G1 X27.746 Y87.148 E7.95141
G1 X27.396 Y86.202 E7.97039
G1 X27.214 Y85.455 E7.98485
G1 X27.106 Y84.63 E8.0005
G1 X27.079 Y84.001 E8.01234
G1 X27.078 Y16.001 E9.29146
G0 F3600 X27.478 Y16.001
G1 F1800 X27.518 Y15.254 E9.30553
G1 X27.637 Y14.516 E9.31959
G1 X27.797 Y13.911 E9.33137
G1 X28.156 Y12.9 E9.35155
G1 X28.49 Y12.231 E9.36561
G1 X28.894 Y11.601 E9.37969
G1 X29.363 Y11.018 E9.39376
G1 X29.908 Y10.473 E9.40826
G1 X30.653 Y9.861 E9.4264
G1 X31.283 Y9.458 E9.44047
G1 X31.952 Y9.124 E9.45453
G1 X33.002 Y8.765 E9.47541
G1 X34.002 Y8.551 E9.49464
G1 X35.002 Y8.479 E9.5135
G1 X64.998 Y8.478 E10.07774
G1 X65.745 Y8.518 E10.09181
G1 X66.844 Y8.726 E10.11285
G1 X67.832 Y9.037 E10.13234
G1 X68.513 Y9.347 E10.14641
G1 X69.157 Y9.728 E10.16049
G1 X69.756 Y10.176 E10.17456
G1 X70.254 Y10.627 E10.1872
G1 X70.768 Y11.171 E10.20127
G1 X71.221 Y11.766 E10.21534
G1 X71.608 Y12.406 E10.22941
G1 X71.925 Y13.084 E10.24349
G1 X72.14 Y13.697 E10.25571
G1 X72.404 Y14.718 E10.27555
G1 X72.501 Y15.46 E10.28962
G1 X72.522 Y15.998 E10.29975
G1 X72.519 Y84.033 E11.57953
G1 X72.479 Y84.78 E11.5936
G1 X72.36 Y85.519 E11.60768
G1 X72.204 Y86.108 E11.61914
G1 X71.873 Y87.041 E11.63776
G1 X71.54 Y87.711 E11.65183
G1 X71.137 Y88.342 E11.66592
G1 X70.467 Y89.143 E11.68556
G1 X69.746 Y89.828 E11.70427
G1 X69.146 Y90.275 E11.71834
G1 X68.501 Y90.654 E11.73242
G1 X67.471 Y91.089 E11.75345
G1 X66.519 Y91.361 E11.77207
G1 X65.781 Y91.479 E11.78613
G1 X65.046 Y91.518 E11.79998
G1 X35.003 Y91.522 E12.3651
G1 X34.256 Y91.482 E12.37917
G1 X33.345 Y91.323 E12.39657
G1 X32.39 Y91.049 E12.41526
G1 X31.701 Y90.758 E12.42933
G1 X31.047 Y90.396 E12.44339
G1 X30.199 Y89.771 E12.4632
G1 X29.473 Y89.093 E12.48189
G1 X28.991 Y88.521 E12.49596
G1 X28.573 Y87.901 E12.51002
G1 X28.116 Y86.994 E12.52913
G1 X27.773 Y86.068 E12.5477
G1 X27.6 Y85.341 E12.56176
G1 X27.504 Y84.596 E12.57589
G1 X27.479 Y84.001 E12.58709
G1 X27.478 Y16.001 E13.86621
G0 F3600 X27.878 Y16.001
G1 F1800 X27.918 Y15.276 E13.87987
G1 X28.037 Y14.559 E13.89354
G1 X28.179 Y14.03 E13.90384
G1 X28.531 Y13.04 E13.92361
G1 X28.859 Y12.392 E13.93727
G1 X29.256 Y11.784 E13.95093
G1 X29.718 Y11.223 E13.9646
G1 X30.175 Y10.772 E13.97668
G1 X30.903 Y10.174 E13.9944
G1 X31.517 Y9.785 E14.00807
G1 X32.17 Y9.466 E14.02174
G1 X33.101 Y9.153 E14.04022
G1 X34.08 Y8.944 E14.05905
G1 X35.002 Y8.879 E14.07644
G1 X64.998 Y8.878 E14.64068
G1 X65.723 Y8.918 E14.65434
G1 X66.738 Y9.112 E14.67377
G1 X67.705 Y9.417 E14.69285
G1 X68.365 Y9.722 E14.70652
G1 X68.987 Y10.096 E14.72018
G1 X69.82 Y10.767 E14.7403
G1 X70.477 Y11.446 E14.75807
G1 X70.914 Y12.026 E14.77173
G1 X71.285 Y12.65 E14.78538
G1 X71.585 Y13.312 E14.79906
G1 X71.757 Y13.811 E14.80898
G1 X72.015 Y14.812 E14.82843
G1 X72.106 Y15.532 E14.84208
G1 X72.122 Y15.998 E14.85085
G1 X72.119 Y84.033 E16.13063
G1 X72.079 Y84.759 E16.1443
G1 X71.96 Y85.475 E16.15796
G1 X71.822 Y85.989 E16.16797
G1 X71.497 Y86.902 E16.1862
G1 X71.171 Y87.551 E16.19986
G1 X70.775 Y88.16 E16.21352
G1 X70.18 Y88.865 E16.23088
G1 X69.474 Y89.534 E16.24917
G1 X68.889 Y89.964 E16.26283
G1 X68.26 Y90.328 E16.2765
G1 X67.346 Y90.709 E16.29513
G1 X66.415 Y90.974 E16.31334
G1 X65.697 Y91.086 E16.32701
G1 X65.046 Y91.118 E16.33927
G1 X35.003 Y91.122 E16.90439
G1 X34.278 Y91.082 E16.91805
G1 X33.439 Y90.934 E16.93408
G1 X32.506 Y90.666 E16.95234
G1 X31.838 Y90.38 E16.966
G1 X31.206 Y90.023 E16.97966
G1 X30.46 Y89.467 E16.99716
G1 X29.75 Y88.804 E17.01543
G1 X29.285 Y88.246 E17.0291
G1 X28.884 Y87.641 E17.04275
G1 X28.485 Y86.841 E17.05957
G1 X28.151 Y85.935 E17.07773
G1 X27.986 Y85.227 E17.0914
G1 X27.903 Y84.562 E17.10401
G1 X27.879 Y84.001 E17.11457
G1 X27.878 Y16.001 E18.39369
G0 F3600 X28.278 Y16.001
G1 F1800 X28.318 Y15.298 E18.40693
G1 X28.437 Y14.604 E18.42018
G1 X28.658 Y13.84 E18.43514
G1 X28.906 Y13.181 E18.44839
G1 X29.227 Y12.554 E18.46164
G1 X29.617 Y11.968 E18.47488
G1 X30.071 Y11.43 E18.48812
G1 X30.442 Y11.07 E18.49784
G1 X31.153 Y10.487 E18.51514
G1 X31.75 Y10.113 E18.52839
G1 X32.385 Y9.81 E18.54162
G1 X33.2 Y9.54 E18.55777
G1 X34.157 Y9.337 E18.57618
G1 X35.002 Y9.279 E18.59211
G1 X64.998 Y9.278 E19.15635
G1 X65.701 Y9.318 E19.1696
G1 X66.633 Y9.497 E19.18745
G1 X67.578 Y9.797 E19.2061
G1 X68.216 Y10.095 E19.21934
G1 X68.816 Y10.464 E19.23259
G1 X69.545 Y11.058 E19.25028
G1 X70.185 Y11.72 E19.2676
G1 X70.606 Y12.285 E19.28086
G1 X70.96 Y12.893 E19.29409
G1 X71.243 Y13.538 E19.30734
G1 X71.462 Y14.22 E19.32081
G1 X71.625 Y14.905 E19.33406
G1 X71.709 Y15.604 E19.3473
G1 X71.722 Y15.998 E19.35472
G1 X71.719 Y84.033 E20.63449
G1 X71.679 Y84.736 E20.64774
G1 X71.56 Y85.43 E20.66098
G1 X71.368 Y86.103 E20.67415
G1 X71.122 Y86.762 E20.68738
G1 X70.802 Y87.389 E20.70062
G1 X70.414 Y87.976 E20.71386
G1 X69.893 Y88.586 E20.72895
G1 X69.203 Y89.239 E20.74682
G1 X68.634 Y89.653 E20.76005
G1 X68.021 Y90.001 E20.77331
G1 X67.22 Y90.329 E20.7896
G1 X66.31 Y90.588 E20.80739
G1 X65.614 Y90.692 E20.82063
G1 X65.046 Y90.718 E20.83133
G1 X35.003 Y90.722 E21.39645
G1 X34.3 Y90.682 E21.4097
G1 X33.534 Y90.546 E21.42433
G1 X32.623 Y90.282 E21.44217
G1 X31.977 Y90.002 E21.45542
G1 X31.367 Y89.651 E21.46865
G1 X30.721 Y89.164 E21.48387
G1 X30.028 Y88.516 E21.50172
G1 X29.58 Y87.973 E21.51496
G1 X29.196 Y87.382 E21.52822
G1 X28.854 Y86.687 E21.54279
G1 X28.529 Y85.802 E21.56052
G1 X28.373 Y85.115 E21.57378
G1 X28.301 Y84.528 E21.5849
G1 X28.279 Y84.001 E21.59482
G1 X28.278 Y16.001 E22.87394
G0 F3600 X28.678 Y16.001
G1 F1800 X28.718 Y15.321 E22.88675
G1 X28.837 Y14.651 E22.89955
G1 X29.04 Y13.959 E22.91312
G1 X29.281 Y13.322 E22.92593
G1 X29.595 Y12.718 E22.93873
G1 X29.978 Y12.155 E22.95154
G1 X30.424 Y11.641 E22.96434
G1 X30.869 Y11.224 E22.97582
G1 X31.403 Y10.801 E22.98863
G1 X31.982 Y10.443 E23.00144
G1 X32.599 Y10.155 E23.01424
G1 X33.299 Y9.928 E23.02809
G1 X34.234 Y9.73 E23.04606
G1 X35.002 Y9.679 E23.06054
G1 X64.998 Y9.678 E23.62478
G1 X65.678 Y9.718 E23.6376
G1 X66.527 Y9.883 E23.65387
G1 X67.451 Y10.177 E23.67211
G1 X68.066 Y10.469 E23.68491
G1 X68.642 Y10.831 E23.69771
G1 X69.269 Y11.348 E23.713
G1 X69.893 Y11.995 E23.7299
G1 X70.297 Y12.543 E23.74271
G1 X70.634 Y13.134 E23.75551
G1 X70.99 Y14.041 E23.77384
G1 X71.235 Y14.997 E23.7924
G1 X71.322 Y15.998 E23.8113
G1 X71.319 Y84.033 E25.09108
G1 X71.279 Y84.713 E25.10389
G1 X71.16 Y85.383 E25.11669
G1 X70.986 Y85.984 E25.12846
G1 X70.747 Y86.621 E25.14126
G1 X70.434 Y87.226 E25.15407
G1 X70.053 Y87.79 E25.16687
G1 X69.607 Y88.307 E25.17972
G1 X68.932 Y88.944 E25.19718
G1 X68.379 Y89.341 E25.20998
G1 X67.784 Y89.671 E25.22278
G1 X67.095 Y89.949 E25.23676
G1 X66.207 Y90.2 E25.25411
G1 X65.533 Y90.297 E25.26692
G1 X65.046 Y90.318 E25.27609
G1 X35.003 Y90.322 E25.84122
G1 X34.323 Y90.282 E25.85403
G1 X33.629 Y90.157 E25.8673
G1 X32.74 Y89.899 E25.88471
G1 X32.117 Y89.625 E25.89751
G1 X31.53 Y89.279 E25.91033
G1 X30.982 Y88.861 E25.92329
G1 X30.306 Y88.227 E25.94073
G1 X29.876 Y87.7 E25.95352
G1 X29.51 Y87.125 E25.96634
G1 X29.223 Y86.533 E25.97872
G1 X28.907 Y85.669 E25.99602
G1 X28.76 Y85.004 E26.00883
G1 X28.7 Y84.494 E26.01849
G1 X28.679 Y84.001 E26.02777
G1 X28.678 Y16.001 E27.30689
G0 F3600 X29.078 Y16.001
G1 F1800 X29.118 Y15.345 E27.31925
G1 X29.324 Y14.388 E27.33767
G1 X29.655 Y13.465 E27.35611
G1 X29.962 Y12.884 E27.36847
G1 X30.337 Y12.344 E27.38084
G1 X30.975 Y11.666 E27.39835
G1 X31.651 Y11.115 E27.41476
G1 X32.213 Y10.773 E27.42713
G1 X32.811 Y10.502 E27.43948
G1 X33.399 Y10.315 E27.45109
G1 X34.31 Y10.124 E27.4686
G1 X35.002 Y10.079 E27.48164
G1 X64.998 Y10.078 E28.04588
G1 X65.654 Y10.118 E28.05825
G1 X66.422 Y10.269 E28.07297
G1 X67.322 Y10.557 E28.09075
G1 X67.914 Y10.842 E28.1031
G1 X68.466 Y11.197 E28.11545
G1 X68.994 Y11.638 E28.12839
G1 X69.6 Y12.268 E28.14483
G1 X69.986 Y12.8 E28.1572
G1 X70.305 Y13.374 E28.16955
G1 X70.607 Y14.156 E28.18532
G1 X70.845 Y15.089 E28.20343
G1 X70.922 Y15.998 E28.22059
G1 X70.919 Y84.033 E29.50037
G1 X70.879 Y84.689 E29.51273
G1 X70.676 Y85.634 E29.53091
G1 X70.372 Y86.48 E29.54782
G1 X70.066 Y87.062 E29.56019
G1 X69.693 Y87.602 E29.57254
G1 X69.32 Y88.028 E29.58319
G1 X68.662 Y88.648 E29.60019
G1 X68.126 Y89.028 E29.61255
G1 X67.548 Y89.34 E29.62491
G1 X66.969 Y89.569 E29.63662
G1 X66.104 Y89.813 E29.65353
G1 X65.453 Y89.903 E29.66589
G1 X65.046 Y89.918 E29.67355
G1 X35.003 Y89.922 E30.23867
G1 X34.347 Y89.882 E30.25104
G1 X33.723 Y89.768 E30.26297
G1 X32.858 Y89.516 E30.27992
G1 X32.258 Y89.248 E30.29228
G1 X31.696 Y88.908 E30.30463
G1 X31.242 Y88.558 E30.31542
G1 X30.585 Y87.94 E30.33238
G1 X30.173 Y87.428 E30.34475
G1 X29.827 Y86.87 E30.3571
G1 X29.593 Y86.379 E30.36733
G1 X29.286 Y85.538 E30.38417
G1 X29.147 Y84.895 E30.39654
G1 X29.079 Y84.001 E30.41341
G1 X29.078 Y16.001 E31.69253
G0 F3600 X29.478 Y16.001
G1 F1800 X29.518 Y15.37 E31.70442
G1 X29.706 Y14.508 E31.72101
G1 X30.03 Y13.608 E31.73901
G1 X30.329 Y13.051 E31.7509
G1 X30.696 Y12.536 E31.7628
G1 X31.242 Y11.964 E31.77767
G1 X31.9 Y11.429 E31.79362
G1 X32.442 Y11.104 E31.80551
G1 X33.021 Y10.85 E31.8174
G1 X33.764 Y10.635 E31.83195
G1 X34.385 Y10.517 E31.84384
G1 X35.002 Y10.479 E31.85547
G1 X64.998 Y10.478 E32.41971
G1 X65.629 Y10.518 E32.43161
G1 X66.317 Y10.655 E32.4448
G1 X67.193 Y10.936 E32.46211
G1 X67.76 Y11.215 E32.47399
G1 X68.288 Y11.563 E32.48589
G1 X68.719 Y11.928 E32.49651
G1 X69.307 Y12.541 E32.51249
G1 X69.675 Y13.055 E32.52438
G1 X69.975 Y13.611 E32.53627
G1 X70.224 Y14.27 E32.54952
G1 X70.455 Y15.18 E32.56718
G1 X70.522 Y15.998 E32.58262
G1 X70.519 Y84.033 E33.86239
G1 X70.479 Y84.664 E33.87429
G1 X70.294 Y85.515 E33.89067
G1 X69.997 Y86.338 E33.90713
G1 X69.699 Y86.895 E33.91901
G1 X69.333 Y87.411 E33.93091
G1 X68.861 Y87.927 E33.94406
G1 X68.393 Y88.351 E33.95594
G1 X67.874 Y88.713 E33.96785
G1 X67.315 Y89.007 E33.97973
G1 X66.844 Y89.19 E33.98923
G1 X66.002 Y89.426 E34.00568
G1 X65.375 Y89.507 E34.01757
G1 X65.046 Y89.518 E34.02376
G1 X35.003 Y89.522 E34.58889
G1 X34.372 Y89.482 E34.60078
G1 X33.818 Y89.38 E34.61138
G1 X32.977 Y89.134 E34.62786
G1 X32.402 Y88.871 E34.63976
G1 X31.865 Y88.538 E34.65164
G1 X31.317 Y88.095 E34.6649
G1 X30.865 Y87.653 E34.67679
G1 X30.472 Y87.158 E34.68868
G1 X30.145 Y86.617 E34.70057
G1 X29.87 Y86.005 E34.71319
G1 X29.664 Y85.407 E34.72509
G1 X29.504 Y84.508 E34.74226
G1 X29.479 Y84.001 E34.75181
G1 X29.478 Y16.001 E36.03093
G0 F3600 X29.878 Y16.001
G1 F1800 X29.918 Y15.396 E36.04233
G1 X30.088 Y14.627 E36.05715
G1 X30.404 Y13.752 E36.07465
G1 X30.695 Y13.22 E36.08606
G1 X31.054 Y12.731 E36.09747
G1 X31.508 Y12.262 E36.10974
G1 X32.147 Y11.745 E36.12521
G1 X32.669 Y11.437 E36.13661
G1 X33.228 Y11.201 E36.14802
G1 X33.863 Y11.022 E36.16043
G1 X34.459 Y10.911 E36.17184
G1 X35.002 Y10.879 E36.18207
G1 X64.998 Y10.878 E36.74631
G1 X65.603 Y10.918 E36.75771
G1 X66.211 Y11.041 E36.76938
G1 X67.062 Y11.315 E36.7862
G1 X67.604 Y11.587 E36.79761
G1 X68.106 Y11.927 E36.80901
G1 X68.601 Y12.368 E36.82148
G1 X69.012 Y12.813 E36.83288
G1 X69.361 Y13.309 E36.84428
G1 X69.642 Y13.847 E36.8557
G1 X69.841 Y14.385 E36.86649
G1 X70.064 Y15.27 E36.88366
G1 X70.122 Y15.998 E36.8974
G1 X70.119 Y84.033 E38.17717
G1 X70.079 Y84.638 E38.18858
G1 X69.912 Y85.396 E38.20318
G1 X69.623 Y86.194 E38.21914
G1 X69.333 Y86.727 E38.23056
G1 X68.975 Y87.216 E38.24196
G1 X68.574 Y87.648 E38.25305
G1 X68.124 Y88.054 E38.26445
G1 X67.624 Y88.397 E38.27585
G1 X67.083 Y88.672 E38.28727
G1 X66.488 Y88.886 E38.29916
G1 X65.901 Y89.038 E38.31057
G1 X65.046 Y89.118 E38.32672
G1 X35.003 Y89.122 E38.89185
G1 X34.398 Y89.082 E38.90325
